;FLAVOR:Marlin
;TIME:29558
;Filament used: 22.7625m
;Layer height: 0.2
;MINX:36.612
;MINY:41.062
;MINZ:0.3
;MAXX:173.388
;MAXY:126.938
;MAXZ:42.175
;Generated with Cura_SteamEngine 5.2.1
M82 ;absolute extrusion mode
;Profil Homepage: https://github.com/NilsRo/Cura_Anycubic_MegaS_Profile

;Slicer Information - (Support for OctoPrint Slicer Estimator)
;Slicer info:material_guid;0ff92885-617b-4144-a03c-9989872454bc
;Slicer info:material_id;generic_pla_175
;Slicer info:material_brand;Generic
;Slicer info:material_name;PLA
;Slicer info:filament_cost;[0.0]
;Slicer info:material_bed_temperature;60
;Slicer info:material_bed_temperature_layer_0;60
;Slicer info:material_print_temperature;200
;Slicer info:material_print_temperature_layer_0;205
;Slicer info:material_flow;100
;Slicer info:layer_height;0.2
;Slicer info:machine_nozzle_size;0.4
;Slicer info:wall_thickness;1.2000000000000002
;Slicer info:speed_print;50.0
;Slicer info:speed_topbottom;25.0
;Slicer info:travel_speed;100.0
;Slicer info:support;0
;Slicer info:retraction_speed;30
;Slicer info:retraction_amount;6
;Slicer info:layer_height;0.2
;Slicer info:infill_pattern;grid
;Slicer info:infill_sparse_density;20
;Slicer info:cool_fan_enabled;True
;Slicer info:cool_fan_speed;100
;Slicer info:sliced_at;Mon 14-11-2022 16:28:35
G21                                        ; metric values 
G90                                        ; absolute positioning 
M82                                        ; set extruder to absolute mode 
M107                                       ; start with the fan off 
M140 S60   ; Start heating the bed 
G4 S60                                     ; wait 1 minute 
M104 S205 ; start heating the hot end 
M190 S60   ; wait for bed 
M109 S205 ; wait for hotend 
M300 S1000 P500                            ; BEEP heating done 
G28 X0 Y10 Z0                              ; move X/Y to min endstops 
M420 S1                                    ; Enable leveling 
M420 Z2.0                                  ; Set leveling fading height to 2 mm 
G0 Z0.15                                   ; lift nozzle a bit 
G92 E0                                     ; zero the extruded length 
G1 X50 E20 F500                            ; Extrude 20mm of filament in a 5cm line. 
G92 E0                                     ; zero the extruded length again 
G1 E-2 F500                                ; Retract a little 
G1 X50 F500                                ; wipe away from the filament line
G1 X100 F9000                              ; Quickly wipe away from the filament line
G92 E0
G92 E0
G1 F1800 E-6
;LAYER_COUNT:210
;LAYER:0
M106 S76.5
M205 X10 Y10
G1 F480 Z0.375
G0 F6000 X39.897 Y43.615 Z0.375
M205 X8 Y8
;TYPE:SKIRT
G1 F480 Z0.3
G1 F1800 E0
G1 F1200 X40.483 Y43.085 E0.03942
G1 X41.119 Y42.618 E0.07878
G1 X41.799 Y42.217 E0.11817
G1 X42.517 Y41.887 E0.15759
G1 X43.389 Y41.597 E0.20344
G1 X44.387 Y41.329 E0.25499
G1 X45.159 Y41.163 E0.29439
G1 X46.07 Y41.062 E0.34012
G1 X163.593 Y41.063 E6.20336
G1 X164.382 Y41.103 E6.24278
G1 X165.289 Y41.243 E6.28857
G1 X166.61 Y41.597 E6.3568
G1 X167.361 Y41.84 E6.39618
G1 X168.084 Y42.157 E6.43556
G1 X168.771 Y42.546 E6.47495
G1 X169.415 Y43.003 E6.51435
G1 X170.103 Y43.615 E6.56028
G1 X170.835 Y44.347 E6.61193
G1 X171.365 Y44.933 E6.65135
G1 X171.832 Y45.569 E6.69072
G1 X172.233 Y46.249 E6.7301
G1 X172.563 Y46.967 E6.76952
G1 X172.853 Y47.837 E6.81528
G1 X173.121 Y48.834 E6.86678
G1 X173.287 Y49.606 E6.90618
G1 X173.388 Y50.517 E6.95191
G1 X173.387 Y117.144 E10.27594
G1 X173.347 Y117.933 E10.31536
G1 X173.207 Y118.843 E10.36129
G1 X172.853 Y120.161 E10.42938
G1 X172.61 Y120.913 E10.4688
G1 X172.292 Y121.636 E10.50821
G1 X171.902 Y122.323 E10.54762
G1 X171.446 Y122.967 E10.58699
G1 X170.835 Y123.653 E10.63282
G1 X170.103 Y124.385 E10.68447
G1 X169.517 Y124.915 E10.72389
G1 X168.881 Y125.382 E10.76325
G1 X168.201 Y125.783 E10.80264
G1 X167.483 Y126.113 E10.84206
G1 X166.611 Y126.403 E10.88791
G1 X165.613 Y126.671 E10.93946
G1 X164.841 Y126.837 E10.97886
G1 X163.93 Y126.938 E11.02459
G1 X46.407 Y126.937 E16.88783
G1 X45.618 Y126.897 E16.92725
G1 X44.711 Y126.757 E16.97303
G1 X43.39 Y126.403 E17.04126
G1 X42.639 Y126.16 E17.08064
G1 X41.916 Y125.843 E17.12003
G1 X41.229 Y125.454 E17.15942
G1 X40.585 Y124.997 E17.19881
G1 X39.897 Y124.385 E17.24475
G1 X39.165 Y123.653 E17.2964
G1 X38.635 Y123.067 E17.33582
G1 X38.168 Y122.431 E17.37518
G1 X37.767 Y121.751 E17.41457
G1 X37.437 Y121.033 E17.45399
G1 X37.147 Y120.163 E17.49974
G1 X36.879 Y119.166 E17.55125
G1 X36.713 Y118.394 E17.59065
G1 X36.612 Y117.483 E17.63637
G1 X36.613 Y50.856 E20.96041
G1 X36.653 Y50.067 E20.99982
G1 X36.793 Y49.157 E21.04576
G1 X37.147 Y47.839 E21.11384
G1 X37.39 Y47.087 E21.15327
G1 X37.708 Y46.364 E21.19268
G1 X38.098 Y45.677 E21.23209
G1 X38.554 Y45.033 E21.27146
G1 X39.165 Y44.347 E21.31729
G1 X39.897 Y43.615 E21.36893
M205 X10 Y10
G0 F6000 X40.179 Y43.897
M205 X8 Y8
G1 F1200 X40.751 Y43.383 E21.4073
G1 X41.373 Y42.93 E21.44569
G1 X42.038 Y42.544 E21.48405
G1 X42.74 Y42.229 E21.52244
G1 X43.493 Y41.983 E21.56196
G1 X44.491 Y41.715 E21.61351
G1 X45.243 Y41.555 E21.65187
G1 X46.111 Y41.462 E21.69542
G1 X163.593 Y41.463 E27.55662
G1 X164.361 Y41.503 E27.59499
G1 X165.216 Y41.637 E27.63817
G1 X166.506 Y41.983 E27.7048
G1 X167.237 Y42.221 E27.74316
G1 X167.94 Y42.533 E27.78153
G1 X168.607 Y42.916 E27.8199
G1 X169.23 Y43.367 E27.85827
G1 X169.821 Y43.897 E27.89788
G1 X170.553 Y44.629 E27.94952
G1 X171.067 Y45.201 E27.98789
G1 X171.52 Y45.823 E28.02628
G1 X171.906 Y46.488 E28.06464
G1 X172.221 Y47.19 E28.10303
G1 X172.466 Y47.941 E28.14244
G1 X172.734 Y48.938 E28.19394
G1 X172.895 Y49.69 E28.23231
G1 X172.988 Y50.558 E28.27586
G1 X172.987 Y117.144 E31.59785
G1 X172.947 Y117.912 E31.63622
G1 X172.812 Y118.773 E31.6797
G1 X172.467 Y120.058 E31.74608
G1 X172.229 Y120.789 E31.78443
G1 X171.916 Y121.492 E31.82283
G1 X171.533 Y122.159 E31.8612
G1 X171.082 Y122.782 E31.89957
G1 X170.553 Y123.371 E31.93907
G1 X169.821 Y124.103 E31.99071
G1 X169.249 Y124.617 E32.02908
G1 X168.627 Y125.07 E32.06747
G1 X167.962 Y125.456 E32.10583
G1 X167.26 Y125.771 E32.14422
G1 X166.507 Y126.017 E32.18374
G1 X165.509 Y126.285 E32.23529
G1 X164.757 Y126.445 E32.27365
G1 X163.889 Y126.538 E32.3172
G1 X46.407 Y126.537 E38.1784
G1 X45.639 Y126.497 E38.21677
G1 X44.784 Y126.363 E38.25995
G1 X43.494 Y126.017 E38.32658
G1 X42.763 Y125.779 E38.36494
G1 X42.06 Y125.467 E38.40331
G1 X41.393 Y125.084 E38.44168
G1 X40.77 Y124.633 E38.48005
G1 X40.179 Y124.103 E38.51966
G1 X39.447 Y123.371 E38.5713
G1 X38.933 Y122.799 E38.60967
G1 X38.48 Y122.177 E38.64806
G1 X38.094 Y121.512 E38.68642
G1 X37.779 Y120.81 E38.72481
G1 X37.534 Y120.059 E38.76422
G1 X37.266 Y119.062 E38.81572
G1 X37.105 Y118.31 E38.85409
G1 X37.012 Y117.442 E38.89764
G1 X37.013 Y50.856 E42.21963
G1 X37.053 Y50.088 E42.258
G1 X37.188 Y49.227 E42.30148
G1 X37.533 Y47.942 E42.36786
G1 X37.771 Y47.211 E42.40621
G1 X38.084 Y46.508 E42.44461
G1 X38.467 Y45.841 E42.48298
G1 X38.918 Y45.218 E42.52135
G1 X39.447 Y44.629 E42.56085
G1 X40.179 Y43.897 E42.61249
M205 X10 Y10
G0 F6000 X40.462 Y44.18
M205 X8 Y8
G1 F1200 X41.019 Y43.68 E42.64984
G1 X41.625 Y43.243 E42.68711
G1 X42.275 Y42.872 E42.72445
G1 X42.961 Y42.573 E42.76178
G1 X43.597 Y42.37 E42.79509
G1 X44.595 Y42.102 E42.84665
G1 X45.326 Y41.946 E42.88394
G1 X46.41 Y41.862 E42.93818
G1 X163.593 Y41.863 E48.78446
G1 X164.34 Y41.903 E48.82178
G1 X165.407 Y42.102 E48.87594
G1 X166.402 Y42.369 E48.92733
G1 X167.113 Y42.601 E48.96464
G1 X167.796 Y42.908 E49.002
G1 X168.441 Y43.286 E49.0393
G1 X169.043 Y43.731 E49.07665
G1 X169.538 Y44.18 E49.10999
G1 X170.27 Y44.912 E49.16164
G1 X170.77 Y45.469 E49.19898
G1 X171.207 Y46.075 E49.23626
G1 X171.578 Y46.725 E49.27359
G1 X171.877 Y47.411 E49.31093
G1 X172.08 Y48.045 E49.34414
G1 X172.348 Y49.042 E49.39565
G1 X172.503 Y49.774 E49.43298
G1 X172.588 Y50.859 E49.48727
G1 X172.587 Y117.144 E52.79425
G1 X172.547 Y117.891 E52.83157
G1 X172.347 Y118.96 E52.88583
G1 X172.08 Y119.954 E52.93717
G1 X171.848 Y120.665 E52.97449
G1 X171.541 Y121.347 E53.0118
G1 X171.163 Y121.993 E53.04914
G1 X170.718 Y122.594 E53.08645
G1 X170.27 Y123.088 E53.11972
G1 X169.538 Y123.82 E53.17137
G1 X168.981 Y124.32 E53.20871
G1 X168.375 Y124.757 E53.24598
G1 X167.725 Y125.128 E53.28332
G1 X167.039 Y125.427 E53.32066
G1 X166.403 Y125.63 E53.35397
G1 X165.405 Y125.898 E53.40552
G1 X164.674 Y126.054 E53.44281
G1 X163.59 Y126.138 E53.49705
G1 X46.407 Y126.137 E59.34334
G1 X45.66 Y126.097 E59.38066
G1 X44.593 Y125.898 E59.43481
G1 X43.598 Y125.631 E59.48621
G1 X42.887 Y125.399 E59.52352
G1 X42.204 Y125.092 E59.56088
G1 X41.559 Y124.714 E59.59818
G1 X40.957 Y124.269 E59.63552
G1 X40.462 Y123.82 E59.66887
G1 X39.73 Y123.088 E59.72051
G1 X39.23 Y122.531 E59.75786
G1 X38.793 Y121.925 E59.79513
G1 X38.422 Y121.275 E59.83247
G1 X38.123 Y120.589 E59.8698
G1 X37.92 Y119.955 E59.90302
G1 X37.652 Y118.958 E59.95452
G1 X37.497 Y118.226 E59.99185
G1 X37.412 Y117.141 E60.04615
G1 X37.413 Y50.856 E63.35312
G1 X37.453 Y50.109 E63.39044
G1 X37.653 Y49.04 E63.4447
G1 X37.92 Y48.046 E63.49605
G1 X38.152 Y47.335 E63.53336
G1 X38.459 Y46.653 E63.57067
G1 X38.837 Y46.007 E63.60802
G1 X39.282 Y45.406 E63.64532
G1 X39.73 Y44.912 E63.6786
G1 X40.462 Y44.18 E63.73024
M205 X10 Y10
G0 F6000 X40.745 Y44.463
M205 X8 Y8
G1 F1200 X41.286 Y43.979 E63.76646
G1 X41.877 Y43.556 E63.80272
G1 X42.511 Y43.202 E63.83894
G1 X43.18 Y42.919 E63.87518
G1 X43.7 Y42.756 E63.90237
G1 X44.698 Y42.488 E63.95393
G1 X45.409 Y42.338 E63.99018
G1 X46.41 Y42.262 E64.04026
G1 X163.593 Y42.263 E69.88655
G1 X164.318 Y42.303 E69.92277
G1 X165.304 Y42.489 E69.97283
G1 X166.299 Y42.756 E70.02423
G1 X166.989 Y42.982 E70.06045
G1 X167.65 Y43.283 E70.09669
G1 X168.274 Y43.655 E70.13293
G1 X168.853 Y44.093 E70.16915
G1 X169.255 Y44.463 E70.19641
G1 X169.987 Y45.195 E70.24806
G1 X170.471 Y45.736 E70.28427
G1 X170.894 Y46.327 E70.32053
G1 X171.248 Y46.961 E70.35676
G1 X171.531 Y47.63 E70.393
G1 X171.694 Y48.149 E70.42014
G1 X171.962 Y49.146 E70.47164
G1 X172.111 Y49.856 E70.50784
G1 X172.188 Y50.859 E70.55802
G1 X172.187 Y117.144 E73.865
G1 X172.147 Y117.869 E73.90122
G1 X171.961 Y118.856 E73.95133
G1 X171.694 Y119.85 E74.00268
G1 X171.467 Y120.54 E74.03892
G1 X171.166 Y121.201 E74.07515
G1 X170.794 Y121.825 E74.1114
G1 X170.356 Y122.404 E74.14762
G1 X169.987 Y122.805 E74.17481
G1 X169.255 Y123.537 E74.22645
G1 X168.714 Y124.021 E74.26267
G1 X168.123 Y124.444 E74.29893
G1 X167.489 Y124.798 E74.33515
G1 X166.82 Y125.081 E74.37139
G1 X166.3 Y125.244 E74.39858
G1 X165.302 Y125.512 E74.45014
G1 X164.591 Y125.662 E74.48639
G1 X163.59 Y125.738 E74.53647
G1 X46.407 Y125.737 E80.38276
G1 X45.682 Y125.697 E80.41898
G1 X44.696 Y125.511 E80.46904
G1 X43.701 Y125.244 E80.52044
G1 X43.011 Y125.018 E80.55666
G1 X42.35 Y124.717 E80.5929
G1 X41.726 Y124.345 E80.62914
G1 X41.147 Y123.907 E80.66536
G1 X40.745 Y123.537 E80.69262
G1 X40.013 Y122.805 E80.74427
G1 X39.529 Y122.264 E80.78048
G1 X39.106 Y121.673 E80.81674
G1 X38.752 Y121.039 E80.85297
G1 X38.469 Y120.37 E80.88921
G1 X38.306 Y119.851 E80.91635
G1 X38.038 Y118.854 E80.96785
G1 X37.889 Y118.144 E81.00405
G1 X37.812 Y117.141 E81.05423
G1 X37.813 Y50.856 E84.36121
G1 X37.853 Y50.131 E84.39743
G1 X38.039 Y49.144 E84.44754
G1 X38.306 Y48.15 E84.49889
G1 X38.533 Y47.46 E84.53513
G1 X38.834 Y46.799 E84.57136
G1 X39.206 Y46.175 E84.60761
G1 X39.644 Y45.596 E84.64383
G1 X40.013 Y45.195 E84.67102
G1 X40.745 Y44.463 E84.72266
M205 X10 Y10
G0 F6000 X41.028 Y44.746
M205 X8 Y8
G1 F1200 X41.553 Y44.277 E84.75778
G1 X42.128 Y43.871 E84.7929
G1 X42.746 Y43.533 E84.82804
G1 X43.501 Y43.223 E84.86876
G1 X44.802 Y42.874 E84.93596
G1 X45.491 Y42.73 E84.97108
G1 X46.41 Y42.662 E85.01706
G1 X163.593 Y42.663 E90.86334
G1 X164.296 Y42.703 E90.89847
G1 X165.2 Y42.875 E90.94438
G1 X166.195 Y43.142 E90.99578
G1 X166.863 Y43.363 E91.03088
G1 X167.502 Y43.658 E91.06599
G1 X168.104 Y44.023 E91.10111
G1 X168.754 Y44.528 E91.14218
G1 X169.704 Y45.478 E91.20921
G1 X170.173 Y46.003 E91.24433
G1 X170.579 Y46.578 E91.27945
G1 X170.917 Y47.196 E91.31459
G1 X171.224 Y47.945 E91.35497
G1 X171.575 Y49.25 E91.42239
G1 X171.719 Y49.939 E91.45751
G1 X171.788 Y50.859 E91.50354
G1 X171.787 Y117.144 E94.81051
G1 X171.747 Y117.847 E94.84564
G1 X171.575 Y118.752 E94.8916
G1 X171.308 Y119.746 E94.94295
G1 X171.087 Y120.415 E94.9781
G1 X170.792 Y121.054 E95.01321
G1 X170.426 Y121.655 E95.04832
G1 X169.921 Y122.305 E95.08938
G1 X168.972 Y123.254 E95.15634
G1 X168.447 Y123.723 E95.19146
G1 X167.872 Y124.129 E95.22658
G1 X167.254 Y124.467 E95.26172
G1 X166.499 Y124.777 E95.30244
G1 X165.198 Y125.126 E95.36964
G1 X164.509 Y125.27 E95.40476
G1 X163.59 Y125.338 E95.45073
G1 X46.407 Y125.337 E101.29702
G1 X45.704 Y125.297 E101.33215
G1 X44.8 Y125.125 E101.37806
G1 X43.805 Y124.858 E101.42945
G1 X43.137 Y124.637 E101.46456
G1 X42.498 Y124.342 E101.49967
G1 X41.896 Y123.977 E101.53479
G1 X41.246 Y123.472 E101.57586
G1 X40.296 Y122.522 E101.64289
G1 X39.827 Y121.997 E101.67801
G1 X39.421 Y121.422 E101.71313
G1 X39.083 Y120.804 E101.74827
G1 X38.776 Y120.055 E101.78865
G1 X38.425 Y118.75 E101.85607
G1 X38.281 Y118.061 E101.89119
G1 X38.212 Y117.141 E101.93722
G1 X38.213 Y50.856 E105.24419
G1 X38.253 Y50.153 E105.27932
G1 X38.425 Y49.248 E105.32528
G1 X38.692 Y48.254 E105.37663
G1 X38.913 Y47.585 E105.41178
G1 X39.208 Y46.946 E105.44689
G1 X39.574 Y46.345 E105.482
G1 X40.079 Y45.695 E105.52306
G1 X41.028 Y44.746 E105.59002
M205 X10 Y10
G0 F6000 X41.311 Y45.029
M205 X8 Y8
G1 F1200 X41.82 Y44.576 E105.62402
G1 X42.378 Y44.187 E105.65795
G1 X42.978 Y43.865 E105.69192
G1 X43.908 Y43.528 E105.74127
G1 X44.906 Y43.26 E105.79283
G1 X45.573 Y43.123 E105.8268
G1 X46.41 Y43.062 E105.86867
G1 X163.593 Y43.063 E111.71495
G1 X164.273 Y43.103 E111.74894
G1 X165.096 Y43.261 E111.79075
G1 X166.091 Y43.528 E111.84214
G1 X166.737 Y43.743 E111.87611
G1 X167.354 Y44.032 E111.9101
G1 X167.932 Y44.391 E111.94405
G1 X168.689 Y45.029 E111.99344
G1 X169.421 Y45.761 E112.04509
G1 X169.874 Y46.27 E112.07908
G1 X170.263 Y46.828 E112.11302
G1 X170.585 Y47.428 E112.14699
G1 X170.921 Y48.356 E112.19623
G1 X171.189 Y49.353 E112.24773
G1 X171.327 Y50.02 E112.28172
G1 X171.388 Y50.859 E112.32368
G1 X171.387 Y117.144 E115.63066
G1 X171.347 Y117.824 E115.66464
G1 X171.188 Y118.649 E115.70656
G1 X170.921 Y119.643 E115.75791
G1 X170.707 Y120.289 E115.79186
G1 X170.417 Y120.905 E115.82582
G1 X170.058 Y121.483 E115.85977
G1 X169.421 Y122.239 E115.90909
G1 X168.689 Y122.971 E115.96074
G1 X168.18 Y123.424 E115.99473
G1 X167.622 Y123.813 E116.02867
G1 X167.022 Y124.135 E116.06264
G1 X166.092 Y124.472 E116.11199
G1 X165.094 Y124.74 E116.16355
G1 X164.427 Y124.877 E116.19752
G1 X163.59 Y124.938 E116.23939
G1 X46.407 Y124.937 E122.08567
G1 X45.727 Y124.897 E122.11965
G1 X44.904 Y124.739 E122.16146
G1 X43.909 Y124.472 E122.21286
G1 X43.263 Y124.257 E122.24683
G1 X42.646 Y123.968 E122.28082
G1 X42.068 Y123.609 E122.31476
G1 X41.311 Y122.971 E122.36416
G1 X40.579 Y122.239 E122.4158
G1 X40.126 Y121.73 E122.4498
G1 X39.737 Y121.172 E122.48373
G1 X39.415 Y120.572 E122.5177
G1 X39.079 Y119.644 E122.56694
G1 X38.811 Y118.647 E122.61845
G1 X38.673 Y117.98 E122.65243
G1 X38.612 Y117.141 E122.6944
G1 X38.613 Y50.856 E126.00137
G1 X38.653 Y50.176 E126.03536
G1 X38.812 Y49.351 E126.07727
G1 X39.079 Y48.357 E126.12862
G1 X39.293 Y47.711 E126.16257
G1 X39.583 Y47.095 E126.19654
G1 X39.942 Y46.517 E126.23049
G1 X40.579 Y45.761 E126.27981
G1 X41.311 Y45.029 E126.33145
M205 X10 Y10
G0 F6000 X41.594 Y45.312
M205 X8 Y8
G1 F1200 X42.086 Y44.876 E126.36425
G1 X42.627 Y44.504 E126.39701
G1 X43.209 Y44.2 E126.42977
G1 X44.012 Y43.915 E126.47228
G1 X45.01 Y43.647 E126.52383
G1 X45.653 Y43.515 E126.55658
G1 X46.41 Y43.462 E126.59444
G1 X163.593 Y43.463 E132.44072
G1 X164.249 Y43.503 E132.47351
G1 X164.993 Y43.648 E132.51133
G1 X165.988 Y43.915 E132.56272
G1 X166.611 Y44.123 E132.59549
G1 X167.204 Y44.406 E132.62827
G1 X167.758 Y44.758 E132.66102
G1 X168.406 Y45.312 E132.70355
G1 X169.138 Y46.044 E132.7552
G1 X169.574 Y46.536 E132.788
